X:150
T: O'Connell's Welcome to Dublin
T: Father Morrison's Delight
T: F\'ailte roimh \'O Conaill go Baile \'Atha Cliath
T: Port Ard (An)
S: B.Breathnach: "Ceol Rince na hEireann" II/35
Z: B.Black
L: 1/8
M: 6/8
R: jig
K: Edor
f|g2e faf|edB AFD|EE/D/E BAF|ABd edB|
g2e faf|edB AFD|EE/D/E Bc/d/B|AFD e2 :|
f|gfe ede|fed BAF|DFA d2z|dFA GFE|
GGG AAA|BAB def|edB AFD|AB/c/d e2 :|

